X: 27569
T: Money In Both Pockets
R: jig
M: 6/8
K: Gmajor
|:g2 B BAB|GBA GBd|g2 B BAB|GBd e2 f|
gBB BAB|GBA GBd|gfe fdB|ABd e2 f:|
|:gfg bag|f2 f afd|g2 g bag|fad e2 f|
gfg bag|fef afd|gfe fdB|1 ABd e2 f:|2 ABd eaf||

